X:1
T:Title
%%score { ( 1 3 ) | ( 2 4 ) }
L:1/8
Q:1/4=100
M:4/4
K:F
V:1 treble nm="Grand Piano"
V:3 treble 
V:2 bass 
V:4 bass 
V:1
 A2 A>G F2 A2 | [Cc]2- [CEc]2 c2 B2 | A3 A G2 F2 |[M:3/4] [EG]6 |[M:1/4] [GB]2 | %5
w: James~McGranahan * * * *|||||
[M:4/4] A3 G F2 A2 | c2 d2 c2 [C_EF]2 | [CDA]3 [B,DG] [A,CF]2 [G,CE]2 | [A,CF]6 z2 | %9
w: ||||
 z4 [Fe]2[K:bass][K:treble] d2 | [Ac]2 [CAc]>[_Ad] [=Ac]2 [FA]2 | [EB]2 [EB]>[EB] [EB]2 G2 | %12
w: |||
 AB[Ac][Bd] [Bd]2 [Ac]2 | z4 [Fe]2[K:bass][K:treble] [Gd]2 | [Ac]2 [CAc]>[_Ad] [=Ac]2 AA | %15
w: |||
 B3 [EB] [EA]2 [EG]2 |[M:3/4] F6 |] %17
w: ||
V:2
 [F,CF]2 [F,CF]>[F,B,C] [F,A,C]2 [F,CF]2 | E,2 B,2[K:treble] [A,CF]2 [G,CF]2 | %2
 [F,CF]3 [F,CF] [E,C]2 [D,=B,]2 |[M:3/4] [C,C]6 |[M:1/4] [E,C]2 | %5
[M:4/4] [F,CF]3 [F,B,C] [F,A,C]2[K:treble] [F,CF]2 | [F,A,F]2 [B,F]2 [A,CF]2[K:bass] A,,2 | %7
 B,,3 B,, C,2 C,2 | F,6 z2 | z4 z2 B,2 | .A,2 z2 z4 | [G,C]2 [C,C]>[C,C] [C,C]2[K:treble] [B,CE]2 | %12
 [A,CF][G,CG][K:bass][F,C][E,C][K:treble] [F,F]2 [F,F]2 | %13
 [B,F]2[K:bass] [B,,B,]>[B,,B,] .[B,,B,]2 .[D,B,]2 | F,-[F,C] F,>[F,=B,] [F,C]2 [F,CF][F,CF] | %15
 [G,CE]3 [C,C] [C,C]2 [C,B,]2 |[M:3/4] A,2 z2 z2 |] %17
V:3
 x8 | G2 z2 z4 | x8 |[M:3/4] x6 |[M:1/4] x2 |[M:4/4] x8 | x8 | x8 | x8 | %9
 [Fd]2 [Fd]>[Fd] z[K:bass] C,[K:treble]FG | x8 | x8 | x8 | %13
 d2 [Fd]>[Fd] z[K:bass] C,[K:treble] z E, | x8 | x8 |[M:3/4] z2 D2 C2 |] %17
V:4
 x8 | x4[K:treble] x4 | x8 |[M:3/4] x6 |[M:1/4] x2 |[M:4/4] x6[K:treble] x2 | x6[K:bass] x2 | x8 | %8
 x8 | [B,,B,]2 [B,,B,]>[B,,B,] .[B,,B,]2 D,E, | F,-[F,C] F,>[F,=B,] [F,C]2 [F,C]2 | %11
 x6[K:treble] x2 | x2[K:bass] x2[K:treble] x4 | x2[K:bass] x6 | .A,2 z2 z4 | x8 | %16
[M:3/4] F,2- [F,-B,]2 [F,A,]2 |] %17

